src/lib/packages/icons/src/assets/line/glasses.svg

<svg width="24" height="24" viewBox="0 0 24 24" fill="none" xmlns="http://www.w3.org/2000/svg">
<path d="M20.1101 5.57199C19.9831 4.77199 19.513 4.07197 18.821 3.65097C18.13 3.23097 17.2919 3.13694 16.5229 3.39194L15.762 3.64596C15.369 3.77696 15.1571 4.20194 15.2881 4.59494C15.4181 4.98794 15.8391 5.20094 16.2361 5.06894L16.9971 4.81491C17.3471 4.69891 17.728 4.74195 18.042 4.93295C18.356 5.12395 18.569 5.44294 18.647 5.89694C19.143 7.61294 19.7509 9.98798 20.0549 12.708C19.4959 12.414 18.815 12.25 17.998 12.25H16.998C14.747 12.25 13.452 13.4169 13.282 15.5279C12.882 15.3559 12.451 15.25 11.998 15.25C11.545 15.25 11.1141 15.3559 10.7141 15.5279C10.5441 13.4169 9.24905 12.25 6.99805 12.25H5.99805C5.18205 12.25 4.50089 12.414 3.94189 12.708C4.24689 9.98198 4.86012 7.588 5.37012 5.806C5.42812 5.442 5.64108 5.12398 5.95508 4.93198C6.26908 4.74198 6.651 4.69893 7 4.81393L7.76099 5.06796C8.15799 5.19896 8.57798 4.98696 8.70898 4.59396C8.84098 4.20096 8.62811 3.77699 8.23511 3.64499L7.47412 3.39096C6.70612 3.13496 5.86803 3.22899 5.17603 3.64999C4.48403 4.07099 4.01398 4.77095 3.90698 5.47995C3.19398 7.94795 2.24707 11.723 2.24707 15.999V16.999C2.24707 19.417 3.57907 20.749 5.99707 20.749H6.99707C9.30207 20.749 10.6061 19.5269 10.7241 17.3189C11.3921 16.6159 12.602 16.6159 13.27 17.3189C13.388 19.5269 14.6921 20.749 16.9971 20.749H17.9971C20.4151 20.749 21.7471 19.417 21.7471 16.999V15.999C21.7501 11.724 20.8031 7.94899 20.1101 5.57199ZM9.25 17C9.25 18.577 8.577 19.25 7 19.25H6C4.423 19.25 3.75 18.577 3.75 17V16C3.75 14.423 4.423 13.75 6 13.75H7C8.577 13.75 9.25 14.423 9.25 16V17ZM20.25 17C20.25 18.577 19.577 19.25 18 19.25H17C15.423 19.25 14.75 18.577 14.75 17V16C14.75 14.423 15.423 13.75 17 13.75H18C19.577 13.75 20.25 14.423 20.25 16V17Z" fill="currentColor"/>
</svg>

<svg xmlns="http://www.w3.org/2000/svg" width="24" height="24" fill="none"><path fill="currentColor" d="M20.11 5.572a2.75 2.75 0 0 0-3.587-2.18l-.761.254a.75.75 0 0 0 .474 1.423l.761-.254a1.25 1.25 0 0 1 1.045.118c.314.19.527.51.605.964.496 1.716 1.104 4.091 1.408 6.811-.56-.294-1.24-.458-2.057-.458h-1c-2.251 0-3.546 1.167-3.716 3.278a3.242 3.242 0 0 0-1.284-.278c-.453 0-.884.106-1.284.278-.17-2.111-1.465-3.278-3.716-3.278h-1c-.816 0-1.497.164-2.056.458.305-2.726.918-5.12 1.428-6.902A1.253 1.253 0 0 1 7 4.814l.761.254a.75.75 0 0 0 .474-1.423l-.76-.254a2.745 2.745 0 0 0-2.299.259c-.692.421-1.162 1.121-1.269 1.83-.713 2.468-1.66 6.243-1.66 10.519v1c0 2.418 1.332 3.75 3.75 3.75h1c2.305 0 3.61-1.222 3.727-3.43.668-.703 1.878-.703 2.546 0 .118 2.208 1.422 3.43 3.727 3.43h1c2.418 0 3.75-1.332 3.75-3.75v-1c.003-4.275-.944-8.05-1.637-10.427ZM9.25 17c0 1.577-.673 2.25-2.25 2.25H6c-1.577 0-2.25-.673-2.25-2.25v-1c0-1.577.673-2.25 2.25-2.25h1c1.577 0 2.25.673 2.25 2.25v1Zm11 0c0 1.577-.673 2.25-2.25 2.25h-1c-1.577 0-2.25-.673-2.25-2.25v-1c0-1.577.673-2.25 2.25-2.25h1c1.577 0 2.25.673 2.25 2.25v1Z"/></svg>
